T: Wren, The
M: 4/4
L: 1/8
K: Bmin
|:Ae e d/e/|f  f/e/  d/c/B/c/|dB e d/c/|1B/c/A/B/  cB:||AA B c/B/|AA B>c|dB e d/c/||2B/A/B/c/ A2||
